X: 4797
T: Boys Of The Lough, The
R: reel
M: 4/4
K: Dmajor
|:AF~F2 A2AB|d2fd efdB|AF~F2 dFAF|~E3F ~E3G|
AF~F2 A2AB|d2fd efdB|AF~F2 dFAF|1 ~E3F D3F:|2 ~E3F D3A||
dfaf gfef|d2fd efdB|AF~F2 dFAF|~E3F ~E3g|
fgaf gfef|d2fd efdB|AF~F2 dFAF|~E3F D3A|
dfaf gfef|d2fd efdB|AF~F2 ABde|fdgf e2fg|
afge fdec|d2fd efdB|AF~F2 dFAF|~E3F D3F||

